X:1064
T:Belle Mere's Waltz
C:Joe Buchanan's Scottish Tome - Page 647.1
I:647 1
Z:Carl Allison
R:Waltz
L:1/4
M:3/4
K:F
C>D F | F>G A | f>g a | g2 f/>e/ | d>f F | A c/A/ G/F/ | G>A G/F/ | D2 F/>D/ | 
C>D F | F>G A | f>g a | g2 f/>e/ | d f F | c C>A | F3- | F2 F/>D/ | 
C>D F | F>G A | f>g a | g2 f/>e/ | d>f F | A c/A/ G/F/ | G>A G/F/ | D2 F/>D/ | 
C>D F | F>G A | f>g a | g2 f/>e/ | d f F | c C>A | F3- | F2 f/g/ | 
a>g f | e c F | d>f d | c F F | d>f d | c F A | G>A G/F/ | D2 f/g/ | 
a>g f | e c F | d>f d | c F F | d>f F | c C A | F3- | F2 f/g/ | 
a>g f | e c F | d>f d | c F F | d>f d | c F A | G>A G/F/ | D2 F/D/ | 
C>D F | F>G A | f>g a | g2 f/>e/ | d f F | c C>A | F3- | F3 |]

